X:7013
T:Grogan's Favourite
T:Eileen O'Callaghan's Reel
R:Reel
C:Trad.
O:Ireland
M:4/4
L:1/8
Q:1/4=160
K:G
"G"G2BG DGBG|GABd "D"cAFA|"G"G2BG DGBc|"D"defd cAFA|
"G"G2BG DGBG|GABd "D"cAFA|"G"GBB2 dBB2|"D"defd cAFA:|
|:"G"dggf g2fg|"D"adfd adfe|"G"dggf "Em"g2fe|"D"defd cAFA|
"G"Gggf g2fg|"D"a^gab a=gfe|"G"dgg2 bgg2|"D"defd cAFA:|
% --------------------------------- H ---------------------------------------

